X:1
T:Title
%%score { ( 1 3 5 ) | ( 2 4 ) }
L:1/8
Q:1/4=100
M:2/2
K:Eb
V:1 treble nm="Grand Piano"
V:3 treble 
V:5 treble 
V:2 bass 
V:4 bass 
V:1
 [GB]4 A2 G2 | G3 F F2 E2 | c2 B2 A2 G2 | A2- [DA]2 G2 G,2 | z2 G2 =A2 [G=B]2 | %5
w: Caryl~Florio * *|||||
 [Gc]3 [Fd] [Ee]2 d2 | c2 G2 =A2 d2 | c4 [B,DB]2 B2 | c8 | f4 z4 | c8 | f4 B4 | e4 d2 [Gc]2 | %13
w: ||||||||
 [B,B]2 [CA]2 [_DA]2 [DG]2 | [Cc]6 E2 | F3 E E4 |] %16
w: |||
V:2
 [E,G,]4 [F,A,F]2 [G,B,E]2 | [A,=B,D]3 [A,B,D] [A,_B,D]2 [G,B,]2 | %2
 [A,E]2 [G,B,E]2 [F,B,D]2 [E,B,E]2 | [B,,B,]4 .[E,B,E]4 | z2 [=B,D]2 [_G,CD]2 [=E,D]2 | %5
 [E,C]3 [D,=B,] [C,C]2 [D,G,B,]2 | [E,G,C]2 [E,C]2 [F,CE]2 [F,B,E]2 | [F,=A,E]4 B,,2 B,2 | C8 | %9
 [B,,B,D]2 [B,,A,]2 [E,G,E]2 B,2 | C8 | [A,,B,D]2 B,2 [B,D]4 | [G,B,E]4 [F,A,F]2 [E,G,]2 | %13
 [D,F,]2 [C,E,]2 [B,,=E,]2 [B,,E,]2 | [A,,F,]6 [C,F,=A,]2 | [B,,D,A,]3 [E,G,] [E,G,]4 |] %16
V:3
 x8 | x8 | x8 | .E4 z4 | G,4 z4 | x8 | x8 | x8 | z2 =E2 F2 f2 | z2 z B B2 B2 | z2 =E2 F2 f2 | %11
 z2 z B z2 A,2 | x8 | x8 | x8 | x8 |] %16
V:4
 x8 | x8 | x8 | x8 | x8 | x8 | x8 | x8 | z2 B,2 A,2 [A,,=B,E]2 | x8 | z2 B,,2 A,,2 [=A,,CE]2 | x8 | %12
 x8 | x8 | x8 | x8 |] %16
V:5
 x8 | x8 | x8 | x8 | x8 | x8 | x8 | x8 | x8 | z2 D2 z4 | x8 | z2 D2 z4 | x8 | x8 | x8 | x8 |] %16

